X: 1
T: \^aamonn Coyne's
M: 4/4
L: 1/8
R: reel
S: Michelle O'Brien
K: Gmaj
B2dB G3B|AD (3DDD dDcA|BcdB GB~B2|ADFA G3A:|
|:~B3d gfed|~^c3e agfe|f2af df~f2|fe^ce d3f|
gfed (3^cde a2-|agfe dcBA|B2dB GB~B2|ADFA G3A:|
